cypex/img/main/strengthsAll__decor.svg

<svg width="1962" height="535" fill="none" xmlns="http://www.w3.org/2000/svg"><path d="M988.771 331.453h-.5v.002l.5-.002Zm.229 56.119h.5v-.002l-.5.002Zm0 51.401a2.667 2.667 0 1 0 0 5.334 2.667 2.667 0 0 0 0-5.334Zm430.25-123.64a2.671 2.671 0 0 0-2.67 2.667c0 1.473 1.2 2.667 2.67 2.667s2.67-1.194 2.67-2.667c0-1.473-1.2-2.667-2.67-2.667Zm-862.5-94.5a2.667 2.667 0 1 0 .001 5.333 2.667 2.667 0 0 0-.001-5.333Zm48-103.354v-.5.5Zm432.02 81.021v-.5.5Zm-48.499 132.955.229 56.119 1-.004-.229-56.12-1 .005Zm.229 56.117v54.068h1v-54.068h-1Zm-.229-321.11v264.991h1V66.463h-1Zm0 0V150.5h1V66.462h-1ZM1036.77 199h334.48v-1h-334.48v1Zm381.98 47.5V318h1v-71.5h-1ZM988.271 0v46h1V0h-1Zm0 46v20.462h1V46h-1ZM556.25 165.479V223.5h1v-58.021h-1Zm432.021-99.017v3.017h1v-3.017h-1Zm-47.5 50.517H604.75v1h336.021v-1Zm-383.521 48.5c0-26.233 21.267-47.5 47.5-47.5v-1c-26.785 0-48.5 21.715-48.5 48.5h1Zm431.021-96c0 26.234-21.266 47.5-47.5 47.5v1c26.786 0 48.5-21.714 48.5-48.5h-1ZM1371.25 199c26.23 0 47.5 21.266 47.5 47.5h1c0-26.786-21.71-48.5-48.5-48.5v1Zm-382.979-48.5c0 26.786 21.719 48.5 48.499 48.5v-1c-26.23 0-47.499-21.267-47.499-47.5h-1Z" fill="url(#a)"/><path opacity=".2" d="M989.16 259.131h-.5v.005l.5-.005Zm.344 33.038h.5v-.005l-.5.005Zm0 29.164a2.666 2.666 0 1 0 0 5.332 2.666 2.666 0 0 0 0-5.332ZM1050 180.86v.5-.5Zm210.5 145.473a2.671 2.671 0 0 0-2.67 2.667c0 1.473 1.2 2.667 2.67 2.667s2.67-1.194 2.67-2.667c0-1.473-1.2-2.667-2.67-2.667ZM839 133.162v-.5.5Zm31 322.671a2.667 2.667 0 1 0 0 5.334 2.667 2.667 0 0 0 0-5.334Zm-3.902-163.664v-.5.5ZM1536 254h.5-.5Zm213 96h.5-.5Zm-213-121.14h-.5.5Zm-547.34 30.276.344 33.039 1-.011-.344-33.038-1 .01Zm.344 33.033V324h1v-31.831h-1Zm-.344-189.042v156.004h1V103.127h-1Zm0 0v29.733h1v-29.733h-1ZM1535.5 228.86V254h1v-25.14h-1ZM988.66 64v27.08h1V64h-1Zm0 27.08v12.047h1V91.081h-1ZM260.5 261.163V484.5h1V261.162h-1Zm776.66-79.802H1050v-1h-12.84v1Zm12.84 0h438v-1h-438v1Zm0 0h88.93v-1H1050v1Zm142.07 53.14H1213v-1h-20.93v1Zm67.93 47V329h1v-47.5h-1Zm324 21h117v-1h-117v1Zm164.5 47.5v136h1V350h-1Zm48.5 184.5h165v-1h-165v1ZM213 532H0v1h213v-1Zm746.126-399.338H839v1h120.126v-1Zm-120.126 0H389v1h450v-1Zm0 1h27.08v-1H839v1Zm74.58 47.5v63.007h1v-63.007h-1Zm-47.482 110.507h-77.69v1h77.69v-1ZM788.415 366.5H822v-1h-33.585v1ZM869.5 414v44.5h1V414h-1ZM822 366.5c26.234 0 47.5 21.266 47.5 47.5h1c0-26.786-21.714-48.5-48.5-48.5v1Zm-71-37.415c0 20.664 16.751 37.415 37.415 37.415v-1c-20.111 0-36.415-16.304-36.415-36.415h-1Zm37.408-37.416c-20.664 0-37.408 16.752-37.408 37.416h1c0-20.112 16.297-36.416 36.408-36.416v-1Zm125.172-47.5c0 26.234-21.248 47.5-47.482 47.5v1c26.786 0 48.482-21.714 48.482-48.5h-1Zm-47.5-110.507c26.234 0 47.5 21.266 47.5 47.5h1c0-26.786-21.714-48.5-48.5-48.5v1ZM1213 234.5c25.96 0 47 21.043 47 47h1c0-26.51-21.49-48-48-48v1Zm-48-27.07c0 14.95 12.12 27.07 27.07 27.07v-1c-14.4 0-26.07-11.672-26.07-26.07h-1Zm-26.07-26.07c14.4 0 26.07 11.672 26.07 26.07h1c0-14.95-12.12-27.07-27.07-27.07v1Zm-150.27-78.233c0 16.312-13.223 29.535-29.534 29.535v1c16.863 0 30.534-13.671 30.534-30.535h-1ZM261.5 261.162c0-70.416 57.084-127.5 127.5-127.5v-1c-70.969 0-128.5 57.531-128.5 128.5h1ZM1748.5 486c0 26.786 21.71 48.5 48.5 48.5v-1c-26.23 0-47.5-21.266-47.5-47.5h-1Zm-213-232c0 26.786 21.71 48.5 48.5 48.5v-1c-26.23 0-47.5-21.266-47.5-47.5h-1Zm165.5 48.5c26.23 0 47.5 21.266 47.5 47.5h1c0-26.786-21.71-48.5-48.5-48.5v1Zm-164.5-73.64c0-26.786-21.71-48.5-48.5-48.5v1c26.23 0 47.5 21.266 47.5 47.5h1ZM260.5 484.5c0 26.233-21.266 47.5-47.5 47.5v1c26.786 0 48.5-21.714 48.5-48.5h-1Zm728.16-351.64c0 26.786 21.71 48.5 48.5 48.5v-1c-26.23 0-47.5-21.267-47.5-47.5h-1Z" fill="url(#b)"/><defs><linearGradient id="a" x1="689.443" y1="441.64" x2="705.477" y2="-24.55" gradientUnits="userSpaceOnUse"><stop stop-color="#E5FF5D"/><stop offset="1" stop-color="#5DFFFF"/></linearGradient><linearGradient id="b" x1="301.846" y1="534" x2="309.837" y2="37.415" gradientUnits="userSpaceOnUse"><stop stop-color="#E5FF5D"/><stop offset="1" stop-color="#5DFFFF"/></linearGradient></defs></svg>

<svg width="1962" height="535" viewBox="0 0 1962 535" fill="none" xmlns="http://www.w3.org/2000/svg">
<path d="M988.771 331.453L988.271 331.453L988.271 331.455L988.771 331.453ZM989 387.572L989.5 387.572L989.5 387.57L989 387.572ZM989 438.973C987.527 438.973 986.333 440.167 986.333 441.64C986.333 443.113 987.527 444.307 989 444.307C990.472 444.307 991.666 443.113 991.666 441.64C991.666 440.167 990.472 438.973 989 438.973ZM1419.25 315.333C1417.78 315.333 1416.58 316.527 1416.58 318C1416.58 319.473 1417.78 320.667 1419.25 320.667C1420.72 320.667 1421.92 319.473 1421.92 318C1421.92 316.527 1420.72 315.333 1419.25 315.333ZM556.75 220.833C555.278 220.833 554.084 222.027 554.084 223.5C554.084 224.973 555.278 226.167 556.75 226.167C558.223 226.167 559.417 224.973 559.417 223.5C559.417 222.027 558.223 220.833 556.75 220.833ZM604.75 117.479L604.75 116.979L604.75 117.479ZM1036.77 198.5L1036.77 198L1036.77 198.5ZM988.271 331.455L988.5 387.574L989.5 387.57L989.271 331.45L988.271 331.455ZM988.5 387.572L988.5 441.64L989.5 441.64L989.5 387.572L988.5 387.572ZM988.271 66.4623L988.271 331.453L989.271 331.453L989.271 66.4623L988.271 66.4623ZM988.271 66.4623L988.271 150.5L989.271 150.5L989.271 66.4623L988.271 66.4623ZM1036.77 199L1371.25 199L1371.25 198L1036.77 198L1036.77 199ZM1418.75 246.5L1418.75 318L1419.75 318L1419.75 246.5L1418.75 246.5ZM988.271 -1.88387e-05L988.271 45.9999L989.271 45.9999L989.271 -1.8795e-05L988.271 -1.88387e-05ZM988.271 45.9999L988.271 66.4623L989.271 66.4623L989.271 45.9999L988.271 45.9999ZM556.25 165.479L556.25 223.5L557.25 223.5L557.25 165.479L556.25 165.479ZM988.271 66.4623L988.271 69.4793L989.271 69.4793L989.271 66.4623L988.271 66.4623ZM940.771 116.979L604.75 116.979L604.75 117.979L940.771 117.979L940.771 116.979ZM557.25 165.479C557.25 139.246 578.517 117.979 604.75 117.979L604.75 116.979C577.965 116.979 556.25 138.694 556.25 165.479L557.25 165.479ZM988.271 69.4793C988.271 95.7129 967.005 116.979 940.771 116.979L940.771 117.979C967.557 117.979 989.271 96.2651 989.271 69.4793L988.271 69.4793ZM1371.25 199C1397.48 199 1418.75 220.266 1418.75 246.5L1419.75 246.5C1419.75 219.714 1398.04 198 1371.25 198L1371.25 199ZM988.271 150.5C988.271 177.286 1009.99 199 1036.77 199L1036.77 198C1010.54 198 989.271 176.733 989.271 150.5L988.271 150.5Z" fill="url(#paint0_linear_74_1504)"/>
<path opacity="0.2" d="M989.16 259.131L988.66 259.131L988.66 259.136L989.16 259.131ZM989.504 292.169L990.004 292.169L990.004 292.164L989.504 292.169ZM989.504 321.333C988.031 321.333 986.838 322.527 986.838 324C986.838 325.473 988.031 326.667 989.504 326.667C990.977 326.667 992.171 325.473 992.171 324C992.171 322.527 990.977 321.333 989.504 321.333ZM1050 180.86L1050 181.36H1050L1050 180.86ZM1260.5 326.333C1259.03 326.333 1257.83 327.527 1257.83 329C1257.83 330.473 1259.03 331.667 1260.5 331.667C1261.97 331.667 1263.17 330.473 1263.17 329C1263.17 327.527 1261.97 326.333 1260.5 326.333ZM839 133.162L839 132.662H839L839 133.162ZM870 455.833C868.527 455.833 867.333 457.027 867.333 458.5C867.333 459.973 868.527 461.167 870 461.167C871.473 461.167 872.667 459.973 872.667 458.5C872.667 457.027 871.473 455.833 870 455.833ZM866.098 292.169L866.098 291.669L866.098 292.169ZM1536 254L1536.5 254L1536 254ZM1749 350L1749.5 350L1749 350ZM1536 228.86L1535.5 228.86L1536 228.86ZM988.66 259.136L989.004 292.175L990.004 292.164L989.66 259.126L988.66 259.136ZM989.004 292.169L989.004 324L990.004 324L990.004 292.169L989.004 292.169ZM988.66 103.127L988.66 259.131L989.66 259.131L989.66 103.127L988.66 103.127ZM988.66 103.127L988.66 132.86L989.66 132.86L989.66 103.127L988.66 103.127ZM1535.5 228.86L1535.5 254L1536.5 254L1536.5 228.86L1535.5 228.86ZM988.66 64L988.66 91.0808L989.66 91.0808L989.66 64L988.66 64ZM988.66 91.0808L988.66 103.127L989.66 103.127L989.66 91.0808L988.66 91.0808ZM260.5 261.162L260.5 484.5L261.5 484.5L261.5 261.162L260.5 261.162ZM1037.16 181.36L1050 181.36L1050 180.36L1037.16 180.36L1037.16 181.36ZM1050 181.36L1488 181.36L1488 180.36L1050 180.36L1050 181.36ZM1050 181.36L1138.93 181.36L1138.93 180.36L1050 180.36L1050 181.36ZM1192.07 234.5L1213 234.5L1213 233.5L1192.07 233.5L1192.07 234.5ZM1260 281.5L1260 329L1261 329L1261 281.5L1260 281.5ZM1584 302.5L1701 302.5L1701 301.5L1584 301.5L1584 302.5ZM1748.5 350L1748.5 486L1749.5 486L1749.5 350L1748.5 350ZM1797 534.5L1962 534.5L1962 533.5L1797 533.5L1797 534.5ZM213 532L-2.04569e-05 532L-2.05006e-05 533L213 533L213 532ZM959.126 132.662L839 132.662L839 133.662L959.126 133.662L959.126 132.662ZM839 132.662L389 132.662L389 133.662L839 133.662L839 132.662ZM839 133.662L866.08 133.662L866.08 132.662L839 132.662L839 133.662ZM913.58 181.162L913.58 244.169L914.58 244.169L914.58 181.162L913.58 181.162ZM866.098 291.669C840.591 291.669 811.09 291.669 788.408 291.669L788.408 292.669C811.09 292.669 840.591 292.669 866.098 292.669L866.098 291.669ZM788.415 366.5L822 366.5L822 365.5L788.415 365.5L788.415 366.5ZM869.5 414L869.5 458.5L870.5 458.5L870.5 414L869.5 414ZM822 366.5C848.234 366.5 869.5 387.766 869.5 414L870.5 414C870.5 387.214 848.786 365.5 822 365.5L822 366.5ZM751 329.085C751 349.749 767.751 366.5 788.415 366.5L788.415 365.5C768.304 365.5 752 349.196 752 329.085L751 329.085ZM788.408 291.669C767.744 291.669 751 308.421 751 329.085L752 329.085C752 308.973 768.297 292.669 788.408 292.669L788.408 291.669ZM913.58 244.169C913.58 270.403 892.332 291.669 866.098 291.669L866.098 292.669C892.884 292.669 914.58 270.955 914.58 244.169L913.58 244.169ZM866.08 133.662C892.314 133.662 913.58 154.928 913.58 181.162L914.58 181.162C914.58 154.376 892.866 132.662 866.08 132.662L866.08 133.662ZM1213 234.5C1238.96 234.5 1260 255.543 1260 281.5L1261 281.5C1261 254.99 1239.51 233.5 1213 233.5L1213 234.5ZM1165 207.43C1165 222.38 1177.12 234.5 1192.07 234.5L1192.07 233.5C1177.67 233.5 1166 221.828 1166 207.43L1165 207.43ZM1138.93 181.36C1153.33 181.36 1165 193.032 1165 207.43L1166 207.43C1166 192.48 1153.88 180.36 1138.93 180.36L1138.93 181.36ZM988.66 103.127C988.66 119.439 975.437 132.662 959.126 132.662L959.126 133.662C975.989 133.662 989.66 119.991 989.66 103.127L988.66 103.127ZM261.5 261.162C261.5 190.746 318.584 133.662 389 133.662L389 132.662C318.031 132.662 260.5 190.193 260.5 261.162L261.5 261.162ZM1748.5 486C1748.5 512.786 1770.21 534.5 1797 534.5L1797 533.5C1770.77 533.5 1749.5 512.234 1749.5 486L1748.5 486ZM1535.5 254C1535.5 280.786 1557.21 302.5 1584 302.5L1584 301.5C1557.77 301.5 1536.5 280.234 1536.5 254L1535.5 254ZM1701 302.5C1727.23 302.5 1748.5 323.766 1748.5 350L1749.5 350C1749.5 323.214 1727.79 301.5 1701 301.5L1701 302.5ZM1536.5 228.86C1536.5 202.074 1514.79 180.36 1488 180.36L1488 181.36C1514.23 181.36 1535.5 202.626 1535.5 228.86L1536.5 228.86ZM260.5 484.5C260.5 510.733 239.234 532 213 532L213 533C239.786 533 261.5 511.286 261.5 484.5L260.5 484.5ZM988.66 132.86C988.66 159.646 1010.37 181.36 1037.16 181.36L1037.16 180.36C1010.93 180.36 989.66 159.093 989.66 132.86L988.66 132.86Z" fill="url(#paint1_linear_74_1504)"/>
<defs>
<linearGradient id="paint0_linear_74_1504" x1="689.443" y1="441.64" x2="705.477" y2="-24.5505" gradientUnits="userSpaceOnUse">
<stop stop-color="#E5FF5D"/>
<stop offset="1" stop-color="#5DFFFF"/>
</linearGradient>
<linearGradient id="paint1_linear_74_1504" x1="301.846" y1="534" x2="309.837" y2="37.4146" gradientUnits="userSpaceOnUse">
<stop stop-color="#E5FF5D"/>
<stop offset="1" stop-color="#5DFFFF"/>
</linearGradient>
</defs>
</svg>
